logos/rocky-linux.svg

<?xml version="1.0" encoding="UTF-8"?>
<svg width="512px" height="95px" viewBox="0 0 512 95" version="1.1" xmlns="http://www.w3.org/2000/svg" xmlns:xlink="http://www.w3.org/1999/xlink" preserveAspectRatio="xMidYMid">
    <title>Rocky Linux</title>
    <g>
				<path d="M92.0179243,62.9323371 C93.7241144,58.0459585 94.6514024,52.7942846 94.6514024,47.3257012 C94.6514024,21.1881108 73.4627986,0 47.3257012,0 C21.1881108,0 0,21.1881108 0,47.3257012 C0,60.258435 5.18758702,71.9799266 13.5952936,80.5217227 L61.6013018,32.5157146 L73.4534321,44.3678449 L92.0179243,62.9323371 Z M83.3730962,77.9912766 L61.6013018,56.2199752 L27.5070779,90.3141991 C33.535682,93.0980348 40.2490299,94.6514024 47.3257012,94.6514024 C61.7639839,94.6514024 74.6927739,88.1855285 83.3730962,77.9912766 L83.3730962,77.9912766 Z" fill="#10B981"></path>
				<path d="M123.772484,71.9745039 L123.772484,22.2825176 L148.050569,22.2825176 C150.558831,22.2825176 152.854127,22.6611233 154.936458,23.4183345 C157.066115,24.1755457 158.888154,25.240374 160.402577,26.6128193 C161.916999,27.9379389 163.100142,29.5470128 163.952004,31.4400408 C164.803867,33.3330689 165.229798,35.4153997 165.229798,37.6870334 C165.229798,40.8105297 164.33061,43.602746 162.532233,46.0636825 C160.781182,48.524619 158.43856,50.3466585 155.504366,51.529801 L166.507592,71.9745039 L155.007447,71.9745039 L145.282015,52.949572 L134.065824,52.949572 L134.065824,71.9745039 L123.772484,71.9745039 Z M147.127717,31.1560866 L134.065824,31.1560866 L134.065824,44.5019344 L147.127717,44.5019344 C149.446677,44.5019344 151.292379,43.8867002 152.664824,42.656232 C154.084595,41.4257638 154.794481,39.8166899 154.794481,37.8290105 C154.794481,35.841331 154.084595,34.2322572 152.664824,33.001789 C151.292379,31.7713207 149.446677,31.1560866 147.127717,31.1560866 Z M167.461501,53.5174804 C167.461501,50.8199155 167.958421,48.3116533 168.95226,45.9926939 C169.993426,43.6264089 171.389534,41.5914037 173.140585,39.8876785 C174.938961,38.1366275 177.044955,36.7641822 179.458566,35.7703425 C181.872177,34.7765028 184.451427,34.2795829 187.196318,34.2795829 C189.941209,34.2795829 192.520459,34.7765028 194.93407,35.7703425 C197.347681,36.7641822 199.430012,38.1366275 201.181063,39.8876785 C202.979439,41.5914037 204.375548,43.6264089 205.369387,45.9926939 C206.410553,48.3116533 206.931135,50.8199155 206.931135,53.5174804 C206.931135,56.2150454 206.410553,58.7469704 205.369387,61.1132555 C204.375548,63.4322148 202.979439,65.4435571 201.181063,67.1472824 C199.430012,68.8510076 197.347681,70.1997901 194.93407,71.1936298 C192.520459,72.1874696 189.941209,72.6843894 187.196318,72.6843894 C184.451427,72.6843894 181.872177,72.1874696 179.458566,71.1936298 C177.044955,70.1997901 174.938961,68.8510076 173.140585,67.1472824 C171.389534,65.4435571 169.993426,63.4322148 168.95226,61.1132555 C167.958421,58.7469704 167.461501,56.2150454 167.461501,53.5174804 Z M187.196318,64.2367517 C190.03586,64.2367517 192.449471,63.1955863 194.43715,61.1132555 C196.42483,59.0309246 197.41867,56.4989996 197.41867,53.5174804 C197.41867,50.4886356 196.42483,47.9330477 194.43715,45.8507168 C192.449471,43.768386 190.03586,42.7272206 187.196318,42.7272206 C184.356776,42.7272206 181.943165,43.768386 179.955486,45.8507168 C177.967806,47.9330477 176.973967,50.4886356 176.973967,53.5174804 C176.973967,56.4989996 177.967806,59.0309246 179.955486,61.1132555 C181.943165,63.1955863 184.356776,64.2367517 187.196318,64.2367517 Z M231.288589,64.1657632 C232.944989,64.1657632 234.483074,63.8344833 235.902845,63.1719235 C237.369942,62.5093637 238.76605,61.4681982 240.09117,60.0484272 L245.912231,66.0824541 C244.019203,68.1647849 241.747569,69.7975216 239.09733,70.9806642 C236.447091,72.116481 233.7022,72.6843894 230.862658,72.6843894 C228.165093,72.6843894 225.609505,72.1874696 223.195894,71.1936298 C220.829609,70.1997901 218.770941,68.8510076 217.01989,67.1472824 C215.316165,65.4435571 213.967383,63.4322148 212.973543,61.1132555 C211.979703,58.7469704 211.482783,56.2150454 211.482783,53.5174804 C211.482783,50.8199155 211.979703,48.3116533 212.973543,45.9926939 C213.967383,43.6264089 215.316165,41.5914037 217.01989,39.8876785 C218.770941,38.1366275 220.829609,36.7641822 223.195894,35.7703425 C225.609505,34.7765028 228.165093,34.2795829 230.862658,34.2795829 C233.796852,34.2795829 236.612731,34.8711542 239.310296,36.0542967 C242.007861,37.1901135 244.303157,38.7991874 246.196185,40.8815182 L240.233147,47.1994993 C238.908027,45.7324026 237.488256,44.6202486 235.973834,43.8630374 C234.459411,43.1058262 232.826675,42.7272206 231.075624,42.7272206 C228.283407,42.7272206 225.917122,43.768386 223.976769,45.8507168 C222.08374,47.9330477 221.137226,50.4886356 221.137226,53.5174804 C221.137226,56.5463253 222.107403,59.0782503 224.047757,61.1132555 C226.035437,63.1482606 228.449047,64.1657632 231.288589,64.1657632 L231.288589,64.1657632 Z M250.968686,71.9745039 L250.968686,22.2825176 L260.694118,20.1528611 L260.694118,50.6069498 L276.666542,34.9894684 L287.669768,34.9894684 L270.348561,51.9557323 L288.734596,71.9745039 L276.311599,71.9745039 L260.694118,55.0792286 L260.694118,71.9745039 L250.968686,71.9745039 Z M302.018329,73.6782291 L302.586237,72.3294467 L288.175068,34.9894684 L298.894832,34.9894684 L308.052356,60.1904043 L318.558661,34.9894684 L329.064967,34.9894684 L312.027714,74.8850345 C310.134686,79.3336504 307.934041,82.5044724 305.425779,84.3975005 C302.917517,86.2905285 299.652044,87.2370425 295.629359,87.2370425 C294.777496,87.2370425 293.949297,87.1897168 293.14476,87.0950654 C292.387549,87.0477397 291.772314,86.9530883 291.299057,86.8111112 L291.299057,78.4344621 C291.772314,78.5291135 292.269234,78.6001021 292.789817,78.6474278 C293.3104,78.6947535 293.949297,78.7184163 294.706508,78.7184163 C296.457559,78.7184163 297.924656,78.292485 299.107798,77.4406224 C300.338266,76.5887598 301.308443,75.3346287 302.018329,73.6782291 L302.018329,73.6782291 Z M348.407868,71.9745039 L348.407868,22.2825176 L353.873987,22.2825176 L353.873987,67.0762938 L383.476213,67.0762938 L383.476213,71.9745039 L348.407868,71.9745039 Z M392.883675,29.5943385 C391.937161,29.5943385 391.108961,29.2393957 390.399076,28.5295102 C389.68919,27.8196247 389.334247,26.9914249 389.334247,26.0449109 C389.334247,25.0510712 389.68919,24.2228714 390.399076,23.5603116 C391.108961,22.8504261 391.937161,22.4954833 392.883675,22.4954833 C393.877515,22.4954833 394.705714,22.8504261 395.368274,23.5603116 C396.07816,24.2228714 396.433103,25.0510712 396.433103,26.0449109 C396.433103,26.9914249 396.07816,27.8196247 395.368274,28.5295102 C394.705714,29.2393957 393.877515,29.5943385 392.883675,29.5943385 Z M395.510251,36.4092394 L395.510251,71.9745039 L390.257099,71.9745039 L390.257099,36.4092394 L395.510251,36.4092394 Z M404.468612,71.9745039 L404.468612,36.4092394 L409.721765,36.4092394 L409.721765,40.597564 C411.09421,38.9884902 412.726947,37.7816848 414.619975,36.9771479 C416.513003,36.1252852 418.618997,35.6993539 420.937956,35.6993539 C424.960641,35.6993539 428.249777,36.9771479 430.805365,39.5327357 C433.360953,42.0883236 434.638747,45.4011227 434.638747,49.471133 L434.638747,71.9745039 L429.456582,71.9745039 L429.456582,50.5359613 C429.456582,47.412465 428.557394,44.9278657 426.759018,43.0821633 C424.960641,41.236461 422.54703,40.3136098 419.518185,40.3136098 C417.388529,40.3136098 415.471838,40.7868668 413.768113,41.7333808 C412.111713,42.6798949 410.762931,44.0286773 409.721765,45.7797283 L409.721765,71.9745039 L404.468612,71.9745039 Z M448.122628,36.4092394 L448.122628,57.8477821 C448.122628,60.9712784 449.021816,63.4558777 450.820193,65.30158 C452.618569,67.1472824 455.03218,68.0701335 458.061025,68.0701335 C460.190682,68.0701335 462.08371,67.5968765 463.740109,66.6503625 C465.443834,65.6565228 466.81628,64.2840775 467.857445,62.5330265 L467.857445,36.4092394 L473.110598,36.4092394 L473.110598,71.9745039 L467.857445,71.9745039 L467.857445,67.8571679 C466.485,69.4662417 464.852263,70.6730471 462.959235,71.477584 C461.113533,72.282121 459.031202,72.6843894 456.712243,72.6843894 C452.642232,72.6843894 449.329433,71.4065955 446.773845,68.8510076 C444.218257,66.2954198 442.940464,62.9826207 442.940464,58.9126104 L442.940464,36.4092394 L448.122628,36.4092394 L448.122628,36.4092394 Z M477.925495,71.9745039 L491.91024,53.6594575 L478.635381,36.4092394 L484.882373,36.4092394 L494.962748,49.7550872 L505.044108,36.4092394 L511.078135,36.4092394 L497.945253,53.588469 L512,71.9745039 L505.753993,71.9745039 L494.893731,57.4928393 L483.888533,71.9745039 L477.925495,71.9745039 Z" fill="#000000"></path>
		</g>
</svg>

<svg width="512" height="95" xmlns="http://www.w3.org/2000/svg" preserveAspectRatio="xMidYMid">
	<path d="M92.018 62.932a47.254 47.254 0 0 0 2.633-15.606C94.651 21.188 73.463 0 47.326 0 21.188 0 0 21.188 0 47.326 0 60.258 5.188 71.98 13.595 80.522l48.006-48.006 11.852 11.852 18.565 18.564Zm-8.645 15.06L61.601 56.22 27.507 90.314a47.15 47.15 0 0 0 19.819 4.337c14.438 0 27.367-6.465 36.047-16.66Z" fill="#10B981"/>
	<path d="M123.772 71.975V22.283h24.279c2.508 0 4.803.378 6.885 1.135 2.13.758 3.952 1.822 5.467 3.195 1.514 1.325 2.697 2.934 3.549 4.827.852 1.893 1.278 3.975 1.278 6.247 0 3.124-.9 5.916-2.698 8.377-1.75 2.46-4.093 4.283-7.028 5.466l11.004 20.445h-11.5l-9.726-19.025h-11.216v19.025h-10.294Zm23.356-40.819h-13.062v13.346h13.062c2.319 0 4.164-.615 5.537-1.846 1.42-1.23 2.13-2.84 2.13-4.827 0-1.988-.71-3.597-2.13-4.827-1.373-1.23-3.218-1.846-5.537-1.846Zm20.334 22.361c0-2.697.496-5.205 1.49-7.524 1.041-2.367 2.438-4.402 4.189-6.105 1.798-1.751 3.904-3.124 6.318-4.118 2.413-.993 4.992-1.49 7.737-1.49s5.324.497 7.738 1.49c2.414.994 4.496 2.367 6.247 4.118 1.798 1.703 3.195 3.738 4.188 6.105 1.042 2.319 1.562 4.827 1.562 7.524 0 2.698-.52 5.23-1.562 7.596a17.964 17.964 0 0 1-4.188 6.034c-1.751 1.704-3.833 3.053-6.247 4.047-2.414.993-4.993 1.49-7.738 1.49s-5.324-.497-7.737-1.49c-2.414-.994-4.52-2.343-6.318-4.047-1.751-1.703-3.148-3.715-4.189-6.034-.994-2.366-1.49-4.898-1.49-7.596Zm19.734 10.72c2.84 0 5.253-1.041 7.241-3.124 1.988-2.082 2.982-4.614 2.982-7.596 0-3.028-.994-5.584-2.982-7.666-1.988-2.083-4.401-3.124-7.24-3.124-2.84 0-5.254 1.041-7.242 3.124-1.987 2.082-2.981 4.638-2.981 7.666 0 2.982.994 5.514 2.981 7.596 1.988 2.083 4.402 3.124 7.241 3.124Zm44.093-.071c1.656 0 3.194-.332 4.614-.994 1.467-.663 2.863-1.704 4.188-3.124l5.821 6.034c-1.893 2.083-4.164 3.716-6.815 4.899a20.7 20.7 0 0 1-8.234 1.703c-2.698 0-5.253-.497-7.667-1.49-2.366-.994-4.425-2.343-6.176-4.047-1.704-1.703-3.053-3.715-4.046-6.034-.994-2.366-1.491-4.898-1.491-7.596 0-2.697.497-5.205 1.49-7.524.994-2.367 2.343-4.402 4.047-6.105 1.75-1.751 3.81-3.124 6.176-4.118 2.414-.993 4.97-1.49 7.667-1.49 2.934 0 5.75.591 8.447 1.774 2.698 1.136 4.993 2.745 6.886 4.828l-5.963 6.317c-1.325-1.467-2.745-2.579-4.26-3.336-1.514-.757-3.146-1.136-4.897-1.136-2.793 0-5.159 1.041-7.1 3.124-1.892 2.082-2.839 4.638-2.839 7.666 0 3.03.97 5.561 2.91 7.596 1.988 2.035 4.402 3.053 7.242 3.053Zm19.68 7.809V22.283l9.725-2.13v30.454l15.973-15.618h11.003l-17.321 16.967 18.386 20.019h-12.423l-15.618-16.896v16.896h-9.725Zm51.05 1.703.567-1.349-14.41-37.34h10.719l9.157 25.201 10.507-25.2h10.506l-17.037 39.895c-1.893 4.449-4.094 7.62-6.602 9.513-2.508 1.893-5.774 2.839-9.797 2.839-.852 0-1.68-.047-2.484-.142-.757-.047-1.373-.142-1.846-.284v-8.377c.473.095.97.166 1.49.213.521.048 1.16.071 1.918.071 1.75 0 3.218-.426 4.4-1.277 1.231-.852 2.201-2.106 2.911-3.763Zm46.389-1.703V22.283h5.466v44.793h29.602v4.899h-35.068Zm44.476-42.38c-.947 0-1.775-.356-2.485-1.065-.71-.71-1.065-1.539-1.065-2.485 0-.994.355-1.822 1.065-2.485.71-.71 1.538-1.065 2.485-1.065.994 0 1.822.355 2.484 1.065.71.663 1.065 1.491 1.065 2.485 0 .946-.355 1.775-1.065 2.485-.662.71-1.49 1.064-2.484 1.064Zm2.626 6.814v35.566h-5.253V36.409h5.253Zm8.959 35.566V36.409h5.253v4.189c1.372-1.61 3.005-2.816 4.898-3.62 1.893-.853 3.999-1.279 6.318-1.279 4.023 0 7.312 1.278 9.867 3.834 2.556 2.555 3.834 5.868 3.834 9.938v22.504h-5.182V50.536c0-3.124-.9-5.608-2.698-7.454s-4.212-2.768-7.24-2.768c-2.13 0-4.047.473-5.75 1.42-1.657.946-3.006 2.295-4.047 4.046v26.195h-5.253Zm43.654-35.566v21.439c0 3.123.899 5.608 2.697 7.454 1.799 1.845 4.212 2.768 7.241 2.768 2.13 0 4.023-.473 5.68-1.42 1.703-.993 3.075-2.366 4.116-4.117V36.409h5.254v35.566h-5.254v-4.118c-1.372 1.61-3.005 2.816-4.898 3.62-1.845.805-3.928 1.207-6.247 1.207-4.07 0-7.383-1.277-9.938-3.833-2.556-2.556-3.834-5.868-3.834-9.938V36.409h5.183Zm29.802 35.566 13.985-18.316-13.275-17.25h6.247l10.08 13.346 10.082-13.346h6.034l-13.133 17.18L512 71.974h-6.246l-10.86-14.482-11.005 14.482h-5.964Z"/>
</svg>
